libs/ui/packages/crypto-icons/src/svg/CS.svg

<svg width="24" height="24" viewBox="0 0 24 24" fill="none">
<path fill-rule="evenodd" clip-rule="evenodd" d="M12.8861 7.21875C14.7258 7.3545 15.6183 8.4525 15.6183 8.65125C15.6183 8.7915 15.5846 9.0975 15.5846 9.285C15.5846 9.41025 15.6296 9.6105 15.7196 9.885C15.6971 10.0725 15.5733 10.167 15.3476 10.167C15.0101 10.167 15.1046 9.78825 14.6036 9.03825C14.0636 8.2305 13.5176 8.061 12.8831 8.02575C12.8958 9.74775 12.9431 14.4877 12.9468 16.1182C14.6381 15.8722 15.5771 14.6093 15.8208 14.6093C15.9558 14.6093 16.1253 14.7142 16.1253 14.9618C16.1253 15.483 14.7888 16.662 12.9213 16.8953C12.7818 18.417 12.0618 20.25 10.2753 20.25C9.43007 20.25 8.71982 19.5975 8.71982 18.84C8.71982 18.3465 9.09182 18.135 9.43007 18.135C9.76757 18.135 10.1058 18.3818 10.1058 18.84C10.1058 19.1453 10.0046 19.3575 9.80207 19.4745C10.0046 19.6155 10.2071 19.686 10.4103 19.686C11.0868 19.686 11.5953 18.462 11.6823 16.8885C9.71132 16.572 7.87457 14.694 7.87457 11.9648C7.87457 8.895 9.78707 7.5675 11.6628 7.27125C11.7003 5.89125 12.4211 3.78375 14.2653 3.75C15.3806 3.75 15.8538 4.6665 15.8538 5.16C15.8538 5.6535 15.4991 5.865 15.1443 5.865C14.7888 5.865 14.4341 5.583 14.4341 5.16C14.4341 4.878 14.5466 4.6785 14.7716 4.56075C14.6141 4.41975 14.4116 4.34925 14.1641 4.34925C13.2258 4.34925 12.9311 6.32775 12.8853 7.21875H12.8861ZM11.6958 16.0597C11.6928 14.2343 11.6696 10.0275 11.6636 8.09475C9.93257 8.52 9.36332 10.5795 9.36332 11.9648C9.36332 14.1608 10.4013 15.669 11.6958 16.0597Z" fill="#262626"/>
</svg>

<svg width="24" height="24" viewBox="0 0 24 24" fill="none"><path fill="#262626" fill-rule="evenodd" d="M12.886 7.219c1.84.135 2.732 1.234 2.732 1.432 0 .14-.033.447-.033.634q0 .188.135.6-.035.282-.372.282c-.338 0-.243-.379-.744-1.129-.54-.808-1.086-.977-1.72-1.012.012 1.722.06 6.462.063 8.092 1.691-.246 2.63-1.509 2.874-1.509.135 0 .304.105.304.353 0 .521-1.336 1.7-3.204 1.933-.14 1.522-.86 3.355-2.646 3.355-.845 0-1.555-.652-1.555-1.41 0-.494.372-.705.71-.705s.676.247.676.705q0 .459-.304.634.304.212.608.212c.677 0 1.185-1.224 1.272-2.797-1.97-.317-3.807-2.195-3.807-4.924 0-3.07 1.912-4.397 3.788-4.694.037-1.38.758-3.487 2.602-3.521 1.116 0 1.589.917 1.589 1.41 0 .494-.355.705-.71.705a.71.71 0 0 1-.71-.705q0-.423.338-.6a.88.88 0 0 0-.608-.21c-.938 0-1.233 1.978-1.279 2.869zm-1.19 8.84c-.003-1.825-.026-6.032-.032-7.964-1.731.425-2.3 2.484-2.3 3.87 0 2.196 1.037 3.704 2.332 4.095" clip-rule="evenodd"/></svg>
